X:1
T:Title
%%score { ( 1 3 4 ) | ( 2 5 ) }
L:1/8
Q:1/4=108
M:4/4
K:E
V:1 treble nm="Grand Piano"
V:3 treble 
V:4 treble 
V:2 bass 
V:5 bass 
V:1
 B3 G [Ee]2 [Ec]2 | B4 G4 | G2 [EA]2 [EB]2 [Ec]2 | B8 | B3 G [Ee]2 [Ec]2 | z4 G4 | %6
w: J.~P.~Harding * * *||||||
 [B,CG]2 [A,CF]2[K:bass] [G,B,E]2 [F,B,D]2 | [G,B,E]8 | z4 c2 B2 | B4 ^A4 | %10
w: ||||
 [F^A]2 [FB]2 [Fc]2 [Fe]2 | [Fd]8 | d2 d2 e2 d-[Ad] | [Gd]4 [Gc]4 | B2 B2 B2 ^A2 | B8 | %16
w: ||||||
 B3 G [Ee]2 [Ec]2 | B4 z4 | z4 c4 | A8 | G2 F2 G2 A2 | B4 [Ee]4 | z2 [CE]2 z4 | E8 |] %24
w: ||||||||
V:2
 [E,G,E]3 [E,B,E] [C,A,]2 [A,,A,]2 | [E,G,E]4 [E,B,E]4 | [E,B,E]2 [C,A,]2 [B,,G,]2 [A,,A,]2 | %3
 G,4 F,2 z2 | [E,G,E]3 [E,B,E] [C,A,]2 [A,,A,]2 | [E,G,E]4 E2 z2 | A,,2 A,,2 B,,2 B,,2 | E,8 | %8
 [B,,B,]2 [B,,B,]2 .[F,^A,F]2 .[G,B,D]2 | [F,CF]4 [F,CF]4 | [E,C]2 [D,B,]2 [F,B,]2 [F,^A,]2 | %11
 [B,,B,]8 | [B,F]2 [A,B,F]2[K:bass] [G,B,E]2 [F,B,]2 | [E,B,]4 [E,E]4 | %14
 [F,DF]2 [F,DF]2 [F,CE]2 [F,CE]2 | [B,D]8 | [G,B,E]3 [E,B,E] [C,A,]2 [A,,A,]2 | G,2 z2 z4 | %18
 [C,C]2 [D,^B,]2 [^E,C]2 [E,C]2 | [F,CF]8 | [B,E]2 [A,B,D]2 [G,B,E]2 [F,A,D]2 | [E,G,E]4 [C,G,]4 | %22
 [C,G,]2 .[A,,A,]2 [B,,F,B,]2 [B,,A,B,]2 | [E,G,B,]8 |] %24
V:3
 x8 | x8 | x8 | z4 D4 | x8 | B4 z2 =D2 | x4[K:bass] x4 | x8 | [DF]2 [Fd]2 z E z ^E | x8 | x8 | x8 | %12
 z4 z2 .B2 | x8 | x8 | z4 A,4 | x8 | E2 [F,D]2 [EG]4 | [EG]2 [FG]2 G2 z B | x8 | x8 | x8 | %22
 [CE]2 z G, E2 D2 | x8 |] %24
V:4
 x8 | x8 | x8 | E4 z2 A,2 | x8 | x8 | x4[K:bass] x4 | x8 | x8 | x8 | x8 | x8 | x8 | x8 | x8 | x8 | %16
 x8 | x8 | z4 z2 G2 | x8 | x8 | x8 | x8 | x8 |] %24
V:5
 x8 | x8 | x8 | B,,8 | x8 | z4 [E,B,]4 | x8 | x8 | x8 | x8 | x8 | x8 | x4[K:bass] x4 | x8 | x8 | %15
 x8 | x8 | B,,4 [C,E,]4 | x8 | x8 | x8 | x8 | x8 | x8 |] %24

